img/icons/icon_support.svg

<svg width="100" height="100" viewBox="0 0 100 100" fill="none" xmlns="http://www.w3.org/2000/svg">
<path d="M79.1667 58.3334V75H70.8333V58.3334H79.1667ZM29.1667 58.3334V75H25C22.7083 75 20.8333 73.125 20.8333 70.8334V58.3334H29.1667ZM50 4.16669C29.2917 4.16669 12.5 20.9584 12.5 41.6667V70.8334C12.5 77.75 18.0833 83.3334 25 83.3334H37.5V50H20.8333V41.6667C20.8333 25.5417 33.875 12.5 50 12.5C66.125 12.5 79.1667 25.5417 79.1667 41.6667V50H62.5V83.3334H79.1667V87.5H50V95.8334H75C81.9167 95.8334 87.5 90.25 87.5 83.3334V41.6667C87.5 20.9584 70.7083 4.16669 50 4.16669Z" fill="#3077C6"/>
</svg>

<svg xmlns="http://www.w3.org/2000/svg" width="100" height="100" fill="none"><path fill="#3077C6" d="M79.167 58.333V75h-8.334V58.333h8.334Zm-50 0V75H25a4.179 4.179 0 0 1-4.167-4.167v-12.5h8.334ZM50 4.167c-20.708 0-37.5 16.791-37.5 37.5v29.166c0 6.917 5.583 12.5 12.5 12.5h12.5V50H20.833v-8.333C20.833 25.542 33.875 12.5 50 12.5s29.167 13.042 29.167 29.167V50H62.5v33.333h16.667V87.5H50v8.333h25c6.917 0 12.5-5.583 12.5-12.5V41.667c0-20.709-16.792-37.5-37.5-37.5Z"/></svg>
